X: 1
T: Amongst Friends
M: 4/4
L: 1/8
R: reel
K: Dmaj
|:(3ABc | d3 d cBAG | F2 EF D2 EF |G2 B2  efed | c2 Bc A2 (3ABc |
d2 g2 fedc |d3 F GABG |A2 d2 F2 ED |D2 D2 D2 :|
|:fg| a2 d2 bagf | f2 ef d2 ef | g2 B2 efed | c2 Bc A2 (3ABc |
d3 d cBAG | F2 EF D2 EF | G2 B2 efed |c2 Bc A2 (3ABc |
d2 g2 fedc |c2F2 GABG |A2 d2 F2 ED | D2 D2 D2:|
